svgs/duotone/square-9.svg

<svg xmlns="http://www.w3.org/2000/svg" viewBox="0 0 448 512"><!-- Font Awesome Pro 6.0.0-alpha2 by @fontawesome - https://fontawesome.com License - https://fontawesome.com/license (Commercial License) --><defs><style>.fa-secondary{opacity:.4}</style></defs><path d="M384 32H64C28.654 32 0 60.654 0 96V416C0 451.346 28.654 480 64 480H384C419.346 480 448 451.346 448 416V96C448 60.654 419.346 32 384 32ZM279.719 308.406L199.781 378.094C195.219 382.062 189.594 384 184 384C177.312 384 170.656 381.219 165.906 375.781C157.188 365.781 158.25 350.625 168.219 341.906L197.979 315.963C157.732 304.533 128 267.859 128 224C128 171.062 171.062 128 224 128S320 171.062 320 224C320 265.301 292.451 297.289 279.719 308.406ZM224 176C197.531 176 176 197.531 176 224S197.531 272 224 272C245.062 272 264 257.906 270.031 237.719C271.344 233.312 272 228.719 272 224C272 197.531 250.469 176 224 176Z" class="fa-secondary"/><path d="M224 128C171.062 128 128 171.062 128 224C128 267.859 157.732 304.533 197.979 315.963L168.219 341.906C158.25 350.625 157.187 365.781 165.906 375.781C170.656 381.219 177.312 384 184 384C189.594 384 195.219 382.062 199.781 378.094L279.719 308.406C292.451 297.289 320 265.301 320 224C320 171.062 276.938 128 224 128ZM270.031 237.719C264 257.906 245.062 272 224 272C197.531 272 176 250.469 176 224S197.531 176 224 176S272 197.531 272 224C272 228.719 271.344 233.312 270.031 237.719Z" class="fa-primary"/></svg>

<svg xmlns="http://www.w3.org/2000/svg" viewBox="0 0 448 512"><!--! Font Awesome Pro 6.0.0-alpha3 by @fontawesome - https://fontawesome.com License - https://fontawesome.com/license (Commercial License) --><defs><style>.fa-secondary{opacity:.4}</style></defs><path class="fa-primary" d="M224 128C171.1 128 128 171.1 128 224c0 43.86 29.73 80.53 69.98 91.96l-29.76 25.94c-9.969 8.719-11.03 23.88-2.312 33.88C170.7 381.2 177.3 384 184 384c5.594 0 11.22-1.938 15.78-5.906l79.94-69.69C292.5 297.3 320 265.3 320 224C320 171.1 276.9 128 224 128zM270 237.7C264 257.9 245.1 272 224 272C197.5 272 176 250.5 176 224S197.5 176 224 176s48 21.53 48 48C272 228.7 271.3 233.3 270 237.7z"/><path class="fa-secondary" d="M384 32H64C28.65 32 0 60.65 0 96v320c0 35.35 28.65 64 64 64h320c35.35 0 64-28.65 64-64V96C448 60.65 419.3 32 384 32zM279.7 308.4l-79.94 69.69C195.2 382.1 189.6 384 184 384c-6.688 0-13.34-2.781-18.09-8.219c-8.719-10-7.656-25.16 2.312-33.88l29.76-25.94C157.7 304.5 128 267.9 128 224c0-52.94 43.06-96 96-96s96 43.06 96 96C320 265.3 292.5 297.3 279.7 308.4zM224 176C197.5 176 176 197.5 176 224S197.5 272 224 272c21.06 0 40-14.09 46.03-34.28C271.3 233.3 272 228.7 272 224C272 197.5 250.5 176 224 176z"/></svg>
